src/images/logo-com-champions-v2.svg

<?xml version="1.0" encoding="UTF-8"?>
<svg width="193px" height="21px" viewBox="0 0 193 21" version="1.1" xmlns="http://www.w3.org/2000/svg" xmlns:xlink="http://www.w3.org/1999/xlink">
    <!-- Generator: Sketch 43.2 (39069) - http://www.bohemiancoding.com/sketch -->
    <title>logo-com-champions-v2</title>
    <desc>Created with Sketch.</desc>
    <defs></defs>
    <g id="Page-1" stroke="none" stroke-width="1" fill="none" fill-rule="evenodd">
        <g id="logo-com-champions-v2" fill-rule="nonzero" fill="#231F20">
            <path d="M13.3,3.7 L10.9,6.4 C10,5.3 8.7,4.5 7.6,4.5 C5.7,4.5 4.3,6 4.3,8.1 C4.3,10.2 5.7,11.7 7.6,11.7 C8.7,11.7 10,11.1 10.9,10.1 L13.3,12.6 C11.8,14.2 9.5,15.3 7.4,15.3 C3.2,15.3 0,12.2 0,8.1 C0,4 3.2,1 7.5,1 C9.6,1.1 11.9,2.1 13.3,3.7 Z" id="line2_city_letter_c"></path>
            <polygon id="line2_city_letter_i" points="15 15 15 1 19.1 1 19.1 15"></polygon>
            <polygon id="line2_city_letter_t" points="28.2 4.3 28.2 15 24 15 24 4.3 20 4.3 20 1 32.3 1 32.3 4.3"></polygon>
            <polygon id="line2_city_letter_y" points="42.2 14.9 38.1 14.9 38.1 10.6 33 1 37.1 1 40.1 6.7 43.1 1 47.2 1 42.2 10.5"></polygon>
            <path d="M51.6612575,14.7 C49.2612575,14.7 47.6612575,12.8 48.0612575,10.4 C48.4612575,8 50.3612575,6 52.8612575,6 C55.1612575,6 56.8612575,7.9 56.4612575,10.3 C56.1612575,12.8 54.1612575,14.7 51.6612575,14.7 Z M52.7612575,7.2 C51.7612575,7.2 51.0612575,8.3 50.6612575,10.5 C50.2612575,12.8 50.6612575,13.8 51.6612575,13.8 C52.6612575,13.8 53.3612575,12.8 53.7612575,10.5 C54.2612575,8.2 53.8612575,7.2 52.7612575,7.2 Z" id="line2_of_letter_o"></path>
            <path d="M64.9,2.5 C64.5,2.5 64.2,2.1 64.1,1.8 C63.9,1.1 63.8,0.8 63.2,0.8 C62.4,0.8 62.1,1.6 61.7,4 L61.3,6.6 L63.1,6.6 L63,7.4 L61.1,7.4 L59.9,14.3 C59,19.1 57.2,20.5 55.2,20.5 C53.8,20.5 53,19.6 53,19 C53,18.4 53.4,18 54,18 C54.4,18 54.7,18.4 54.7,18.7 C54.8,19.3 55,19.7 55.7,19.7 C56.4,19.7 56.6,19.1 57,16.8 L58.7,7.4 L57.3,7.4 L57.4,6.6 L58.9,6.6 L59.3,4.4 C59.7,1.9 61.2,0 63.5,0 C65.1,0 65.9,1 65.9,1.6 C65.9,2.2 65.4,2.5 64.9,2.5 Z" id="line2_of_letter_f"></path>
            <path d="M80.3,3.6 L77.9,6.4 C77,5.3 75.7,4.5 74.6,4.5 C72.7,4.5 71.3,6 71.3,8.1 C71.3,10.2 72.7,11.7 74.6,11.7 C75.7,11.7 77,11.1 77.9,10.1 L80.3,12.6 C78.8,14.2 76.5,15.3 74.4,15.3 C70.2,15.3 67,12.2 67,8.1 C67,4 70.2,1 74.5,1 C76.7,1 78.9,2 80.3,3.6 Z" id="line2_champions_letter_c"></path>
            <polygon id="line2_champions_letter_h" points="91.1 15 91.1 9.8 86.1 9.8 86.1 15 82 15 82 1 86.1 1 86.1 6.6 91.1 6.6 91.1 1 95.2 1 95.2 15"></polygon>
            <path d="M101.1,12.8 L100.3,15 L96,15 L102,1 L106.3,1 L112.1,15 L107.7,15 L106.9,12.8 L101.1,12.8 Z M103.9,5.2 L102.2,9.8 L105.6,9.8 L103.9,5.2 Z" id="line2_champions_letter_a"></path>
            <polygon id="line2_champions_letter_m" points="125.9 15 125.9 6.7 123.1 13.6 120.4 13.6 117.6 6.7 117.6 15 114 15 114 1 118.4 1 121.8 8.7 125.2 1 129.6 1 129.6 15"></polygon>
            <path d="M137.4,1 C141,1 143.1,2.8 143.1,6 C143.1,9.3 141,11.2 137.4,11.2 L135.2,11.2 L135.2,15 L131,15 L131,1 L137.4,1 L137.4,1 Z M135.2,8 L137.2,8 C138.4,8 139.2,7.3 139.2,6.1 C139.2,4.9 138.5,4.2 137.2,4.2 L135.2,4.2 L135.2,8 Z" id="line2_champions_letter_p"></path>
            <polygon id="line2_champions_letter_i" points="144 15 144 1 148.1 1 148.1 15"></polygon>
            <path d="M165.2,8.1 C165.2,12.2 162,15.3 157.6,15.3 C153.2,15.3 150,12.3 150,8.1 C150,4 153.2,1 157.6,1 C162,1 165.2,4 165.2,8.1 Z M154.3,8.1 C154.3,10.2 155.9,11.8 157.7,11.8 C159.5,11.8 161,10.2 161,8.1 C161,6 159.5,4.5 157.7,4.5 C155.8,4.6 154.3,6 154.3,8.1 Z" id="line2_champions_letter_o"></path>
            <polygon id="line2_champions_letter_n" points="175.7 15 169.8 7.2 169.8 15 166 15 166 1 169.5 1 175.4 8.8 175.4 1 179.2 1 179.2 15"></polygon>
            <path d="M192.5,2.5108262 L191,5.7108262 C189.6,4.9108262 187.5,4.1108262 186.4,4.1108262 C185.7,4.1108262 185.2,4.3108262 185.2,4.9108262 C185.2,7.0108262 192.5,5.7108262 192.5,10.8108262 C192.5,13.8108262 189.9,15.2108262 186.7,15.2108262 C184.3,15.2108262 181.7,14.4108262 180,13.0108262 L181.6,9.9108262 C183,11.1108262 185.4,12.0108262 186.8,12.0108262 C187.7,12.0108262 188.2,11.7108262 188.2,11.1108262 C188.2,9.0108262 180.9,10.3108262 180.9,5.4108262 C180.9,2.7108262 183.2,1.0108262 186.7,1.0108262 C188.8,0.910826205 191,1.5108262 192.5,2.5108262 Z" id="line2_champions_letter_s"></path>
        </g>
    </g>
</svg>

<svg width="193" height="21" viewBox="0 0 193 21" xmlns="http://www.w3.org/2000/svg"><title>logo-com-champions-v2</title><g fill-rule="nonzero" fill="#000000"><path d="M13.3 2.7l-2.4 2.7C10 4.3 8.7 3.5 7.6 3.5 5.7 3.5 4.3 5 4.3 7.1s1.4 3.6 3.3 3.6c1.1 0 2.4-.6 3.3-1.6l2.4 2.5c-1.5 1.6-3.8 2.7-5.9 2.7-4.2 0-7.4-3.1-7.4-7.2S3.2 0 7.5 0c2.1.1 4.4 1.1 5.8 2.7zM15 15V1h4.1v14M28.2 4.3V15H24V4.3h-4V1h12.3v3.3M42.2 14.9h-4.1v-4.3L33 1h4.1l3 5.7 3-5.7h4.1l-5 9.5M51.6613 14.7c-2.4 0-4-1.9-3.6-4.3.4-2.4 2.3-4.4 4.8-4.4 2.3 0 4 1.9 3.6 4.3-.3 2.5-2.3 4.4-4.8 4.4zm1.1-7.5c-1 0-1.7 1.1-2.1 3.3-.4 2.3 0 3.3 1 3.3s1.7-1 2.1-3.3c.5-2.3.1-3.3-1-3.3z"/><path d="M64.9 2.5c-.4 0-.7-.4-.8-.7-.2-.7-.3-1-.9-1-.8 0-1.1.8-1.5 3.2l-.4 2.6h1.8l-.1.8h-1.9l-1.2 6.9c-.9 4.8-2.7 6.2-4.7 6.2-1.4 0-2.2-.9-2.2-1.5s.4-1 1-1c.4 0 .7.4.7.7.1.6.3 1 1 1s.9-.6 1.3-2.9l1.7-9.4h-1.4l.1-.8h1.5l.4-2.2c.4-2.5 1.9-4.4 4.2-4.4 1.6 0 2.4 1 2.4 1.6 0 .6-.5.9-1 .9zM80.3 2.6l-2.4 2.8c-.9-1.1-2.2-1.9-3.3-1.9-1.9 0-3.3 1.5-3.3 3.6s1.4 3.6 3.3 3.6c1.1 0 2.4-.6 3.3-1.6l2.4 2.5c-1.5 1.6-3.8 2.7-5.9 2.7-4.2 0-7.4-3.1-7.4-7.2S70.2 0 74.5 0c2.2 0 4.4 1 5.8 2.6zM91.1 15V9.8h-5V15H82V1h4.1v5.6h5V1h4.1v14M101.1 12.8l-.8 2.2H96l6-14h4.3l5.8 14h-4.4l-.8-2.2h-5.8zm2.8-7.6l-1.7 4.6h3.4l-1.7-4.6zM125.9 15V6.7l-2.8 6.9h-2.7l-2.8-6.9V15H114V1h4.4l3.4 7.7 3.4-7.7h4.4v14M137.4 1c3.6 0 5.7 1.8 5.7 5 0 3.3-2.1 5.2-5.7 5.2h-2.2V15H131V1h6.4zm-2.2 7h2c1.2 0 2-.7 2-1.9s-.7-1.9-2-1.9h-2V8zM144 15V1h4.1v14M165.2 7.1c0 4.1-3.2 7.2-7.6 7.2-4.4 0-7.6-3-7.6-7.2 0-4.1 3.2-7.1 7.6-7.1 4.4 0 7.6 3 7.6 7.1zm-10.9 0c0 2.1 1.6 3.7 3.4 3.7 1.8 0 3.3-1.6 3.3-3.7s-1.5-3.6-3.3-3.6c-1.9.1-3.4 1.5-3.4 3.6zM175.7 15l-5.9-7.8V15H166V1h3.5l5.9 7.8V1h3.8v14M192.5 2.5108l-1.5 3.2c-1.4-.8-3.5-1.6-4.6-1.6-.7 0-1.2.2-1.2.8 0 2.1 7.3.8 7.3 5.9 0 3-2.6 4.4-5.8 4.4-2.4 0-5-.8-6.7-2.2l1.6-3.1c1.4 1.2 3.8 2.1 5.2 2.1.9 0 1.4-.3 1.4-.9 0-2.1-7.3-.8-7.3-5.7 0-2.7 2.3-4.4 5.8-4.4 2.1-.1 4.3.5 5.8 1.5zM195.4.5v2.4h-.6V.5h-.8V0h2.3v.5h-.9zm3.8 2.4v-2l-.8 1.7h-.4l-.8-1.7v2h-.5V0h.7l.9 1.8.9-1.8h.7v2.9h-.7z"/></g></svg>
